icons/folder-red-hat.svg

<svg stroke-miterlimit="10" style="fill-rule:nonzero;clip-rule:evenodd;stroke-linecap:round;stroke-linejoin:round" viewBox="0 0 24 24" xml:space="preserve" xmlns="http://www.w3.org/2000/svg"><path d="M10 4H4c-1.11 0-2 .89-2 2v12c0 1.097.903 2 2 2h16c1.097 0 2-.903 2-2V8a2 2 0 0 0-2-2h-8l-2-2Z" fill="#ff5252" fill-opacity=".8"/><path d="M17.92 16.302c.92 0 2.25-.191 2.25-1.285a1.026 1.026 0 0 0-.022-.252l-.547-2.379c-.127-.524-.238-.761-1.157-1.22-.713-.366-2.269-.969-2.728-.969-.427 0-.552.552-1.062.552-.492 0-.857-.412-1.317-.412-.441 0-.728.302-.95.92 0 0-.618 1.744-.699 1.997a.474.474 0 0 0-.015.143c0 .678 2.67 2.901 6.247 2.901m2.392-.837c.128.603.128.666.128.745 0 1.03-1.158 1.601-2.68 1.601-3.439.003-6.451-2.013-6.451-3.344 0-.185.037-.37.11-.54-1.234.062-2.838.283-2.838 1.696 0 2.316 5.487 5.17 9.83 5.17 3.33 0 4.17-1.507 4.17-2.696 0-.936-.809-1.998-2.267-2.632" fill="#ffcdd2"/></svg>

<svg height="100%" stroke-miterlimit="10" style="fill-rule:nonzero;clip-rule:evenodd;stroke-linecap:round;stroke-linejoin:round;" version="1.1" viewBox="0 0 24 24" width="100%" xml:space="preserve" xmlns="http://www.w3.org/2000/svg" xmlns:xlink="http://www.w3.org/1999/xlink">
<defs/>
<g>
<path d="M10 4L4 4C2.89 4 2 4.89 2 6L2 18C2 19.097 2.903 20 4 20L20 20C21.097 20 22 19.097 22 18L22 8C22 6.89543 21.1046 6 20 6L12 6C12 6 10 4 10 4Z" fill="#ff5252" fill-rule="nonzero" opacity="1" stroke="none"/>
<path d="M17.92 16.302C18.84 16.302 20.17 16.111 20.17 15.017C20.1731 14.9324 20.1657 14.8478 20.148 14.765L19.601 12.386C19.474 11.862 19.363 11.625 18.444 11.166C17.731 10.8 16.175 10.197 15.716 10.197C15.289 10.197 15.164 10.749 14.654 10.749C14.162 10.749 13.797 10.337 13.337 10.337C12.896 10.337 12.609 10.639 12.387 11.257C12.387 11.257 11.769 13.001 11.688 13.254C11.6758 13.3006 11.6707 13.3488 11.673 13.397C11.673 14.075 14.343 16.298 17.92 16.298M20.312 15.461C20.44 16.064 20.44 16.127 20.44 16.206C20.44 17.236 19.282 17.807 17.76 17.807C14.321 17.81 11.309 15.794 11.309 14.463C11.309 14.278 11.346 14.093 11.419 13.923C10.185 13.985 8.581 14.206 8.581 15.619C8.581 17.935 14.068 20.789 18.411 20.789C21.741 20.789 22.581 19.282 22.581 18.093C22.581 17.157 21.772 16.095 20.314 15.461" fill="#ffcdd2" fill-rule="nonzero" opacity="1" stroke="none"/>
</g>
</svg>
